src/assets/flags/RSD.svg

<svg width="512" height="512" viewBox="0 0 512 512" fill="none" xmlns="http://www.w3.org/2000/svg"><mask id="a" style="mask-type:alpha" maskUnits="userSpaceOnUse" x="0" y="0" width="512" height="512" viewBox="0 0 512 512"><path d="M256 512c141.385 0 256-114.615 256-256S397.385 0 256 0 0 114.615 0 256s114.615 256 256 256z" fill="#fff"/></mask><g mask="url(#a)"><path d="m0 167 253.8-19.3L512 167v178l-254.9 32.3L0 345V167z" fill="#0052B4"/><path d="M0 0h512v167H0V0z" fill="#D80027"/><path d="M0 345h512v167H0V345z" fill="#EEE"/><path d="M66 146.5v127.7c0 72.6 94.9 95 94.9 95s94.9-22.4 94.9-95V146.5H66z" fill="#D80027"/><path d="M105.2 168.8h111.4v-44.6l-22.3 11.2-33.4-33.4-33.4 33.4-22.3-11.2v44.6zM233.5 292l-72.3-72.4L88.8 292l23.7 23.6 48.7-48.7 48.7 48.7 23.6-23.6z" fill="#FFDA44"/><path d="M233.5 224.399h-33.7a22.096 22.096 0 0 0 3-11.1 22.302 22.302 0 0 0-31.374-20.42 22.295 22.295 0 0 0-10.626 9.92 22.3 22.3 0 0 0-41.9 10.5c.003 3.9 1.038 7.73 3 11.1H88.8a23 23 0 0 0 23 22.3h-.7c0 12.3 10 22.2 22.3 22.2 0 11 7.8 20 18.1 21.9l-17.5 39.6a72.093 72.093 0 0 0 27.2 5.3 72.093 72.093 0 0 0 27.2-5.3l-17.5-39.6c10.3-2 18.1-11 18.1-21.9 12.3 0 22.3-10 22.3-22.2h-.8a23 23 0 0 0 23-22.3z" fill="#EEE"/></g></svg>

<svg width="512" height="512" viewBox="0 0 512 512" fill="none" xmlns="http://www.w3.org/2000/svg">
<mask id="mask0_517_264" style="mask-type:alpha" maskUnits="userSpaceOnUse" x="0" y="0" width="512" height="512">
<path d="M256 512C397.385 512 512 397.385 512 256C512 114.615 397.385 0 256 0C114.615 0 0 114.615 0 256C0 397.385 114.615 512 256 512Z" fill="white"/>
</mask>
<g mask="url(#mask0_517_264)">
<path d="M0 167L253.8 147.7L512 167V345L257.1 377.3L0 345V167Z" fill="#0052B4"/>
<path d="M0 0H512V167H0V0Z" fill="#D80027"/>
<path d="M0 345H512V512H0V345Z" fill="#EEEEEE"/>
<path d="M66 146.5V274.2C66 346.8 160.9 369.2 160.9 369.2C160.9 369.2 255.8 346.8 255.8 274.2V146.5H66Z" fill="#D80027"/>
<path d="M105.2 168.8H216.6V124.2L194.3 135.4L160.9 102L127.5 135.4L105.2 124.2V168.8ZM233.5 292L161.2 219.6L88.8 292L112.5 315.6L161.2 266.9L209.9 315.6L233.5 292Z" fill="#FFDA44"/>
<path d="M233.5 224.399H199.8C201.762 221.029 202.797 217.199 202.8 213.299C202.811 208.318 201.154 203.476 198.092 199.545C195.031 195.615 190.742 192.823 185.909 191.615C181.075 190.407 175.977 190.852 171.426 192.879C166.875 194.906 163.134 198.398 160.8 202.799C158.44 198.451 154.701 195.01 150.171 193.019C145.642 191.029 140.578 190.601 135.779 191.804C130.979 193.007 126.716 195.771 123.66 199.663C120.605 203.554 118.93 208.352 118.9 213.299C118.903 217.199 119.938 221.029 121.9 224.399H88.8C88.982 230.377 91.4853 236.049 95.7791 240.212C100.073 244.375 105.819 246.702 111.8 246.699H111.1C111.1 258.999 121.1 268.899 133.4 268.899C133.4 279.899 141.2 288.899 151.5 290.799L134 330.399C142.639 333.908 151.876 335.708 161.2 335.699C170.524 335.708 179.761 333.908 188.4 330.399L170.9 290.799C181.2 288.799 189 279.799 189 268.899C201.3 268.899 211.3 258.899 211.3 246.699H210.5C216.481 246.702 222.227 244.375 226.521 240.212C230.815 236.049 233.318 230.377 233.5 224.399Z" fill="#EEEEEE"/>
</g>
</svg>
